src/dsmComponents/Icons/device-smartwatch-disconnected-12px.svg

<?xml version="1.0" encoding="UTF-8"?>
<svg width="12px" height="13px" viewBox="0 0 12 13" version="1.1" xmlns="http://www.w3.org/2000/svg" xmlns:xlink="http://www.w3.org/1999/xlink">
    <!-- Generator: Sketch 59.1 (86144) - https://sketch.com -->
    <title>device-smartwatch-disconnected-12px</title>
    <desc>Created with Sketch.</desc>
    <defs>
        <path d="M0.313483696,1.8275 C0.417668478,1.701 0.602559783,1.6845 0.726309783,1.791 L0.726309783,1.791 L10.6507663,10.3035 C10.7750054,10.41 10.7911467,10.5985 10.686962,10.7255 L10.686962,10.7255 L10.4423967,11.024 C10.338212,11.151 10.1533207,11.1675 10.0295707,11.061 L10.0295707,11.061 L9.22641848,10.3725 C9.12908152,10.416 9.02734239,10.452 8.9197337,10.4725 L8.9197337,10.4725 L8.63897283,11.6215 C8.58467935,11.8435 8.38902717,12 8.1645163,12 L8.1645163,12 L3.27321196,12 C3.04870109,12 2.85304891,11.8435 2.7982663,11.6215 L2.7982663,11.6215 L2.51750543,10.4725 C1.83565761,10.3435 1.31669022,9.734 1.31669022,9 L1.31669022,9 L1.31669022,3.5875 L0.104625,2.548 C-0.019125,2.442 -0.0352663043,2.253 0.0684293478,2.126 L0.0684293478,2.126 Z M2.29495109,4.427 L2.29495109,9 C2.29495109,9.2755 2.51457065,9.5 2.78408152,9.5 L2.78408152,9.5 L8.2095163,9.5 L2.29495109,4.427 Z M8.13345652,0 C8.35796739,0 8.55361957,0.156 8.60791304,0.3785 L8.60791304,0.3785 L8.88916304,1.5275 C9.57101087,1.6565 10.0899783,2.266 10.0899783,3 L10.0899783,3 L10.0899783,4.5 L11.0682391,4.5 L11.0682391,7.5 L10.0899783,7.5 L10.0899783,8.2695 L9.11171739,7.4305 L9.11171739,3 C9.11171739,2.7245 8.89209783,2.5 8.62258696,2.5 L8.62258696,2.5 L3.36345652,2.5 L2.29666304,1.585 C2.35927174,1.564 2.42041304,1.54 2.48644565,1.5275 L2.48644565,1.5275 L2.76769565,0.3785 C2.82198913,0.156 3.0176413,0 3.24215217,0 L3.24215217,0 Z" id="path-1"></path>
    </defs>
    <g id="Final" stroke="none" stroke-width="1" fill="none" fill-rule="evenodd">
        <g id="All-Nucleo-Icons" transform="translate(-174.000000, -2586.000000)">
            <g id="Solo/Nucleo/12px/device-smartwatch-disconnected" transform="translate(168.000000, 2581.000000)">
                <g id="watch-lost" transform="translate(6.375000, 5.750000)">
                    <mask id="mask-2" fill="white">
                        <use xlink:href="#path-1"></use>
                    </mask>
                    <g id="Mask"></g>
                    <g id="colour/neutral/chia" mask="url(#mask-2)" fill="#737373">
                        <g transform="translate(-18.000000, -18.000000)" id="Colour">
                            <rect x="0" y="0" width="48" height="48"></rect>
                        </g>
                    </g>
                </g>
            </g>
        </g>
    </g>
</svg>

<svg width="12" height="13" xmlns="http://www.w3.org/2000/svg" xmlns:xlink="http://www.w3.org/1999/xlink"><defs><path d="M.313 1.827a.289.289 0 01.413-.036l9.925 8.512c.124.107.14.295.036.422l-.245.299a.288.288 0 01-.412.037l-.804-.688a1.443 1.443 0 01-.306.1l-.281 1.148a.491.491 0 01-.474.379H3.273a.492.492 0 01-.475-.379l-.28-1.149A1.492 1.492 0 011.317 9V3.588L.105 2.548a.305.305 0 01-.037-.422zm1.982 2.6V9c0 .275.22.5.49.5H8.21L2.295 4.427zM8.133 0a.49.49 0 01.475.379l.281 1.149A1.491 1.491 0 0110.09 3v1.5h.978v3h-.978v.77l-.978-.84V3c0-.276-.22-.5-.49-.5H3.364l-1.066-.915c.062-.021.123-.045.19-.057l.28-1.15A.49.49 0 013.243 0z" id="device-smartwatch-disconnected-12px_svg__a"/></defs><use fill="#737373" xlink:href="#device-smartwatch-disconnected-12px_svg__a" transform="translate(.375 .75)" fill-rule="evenodd"/></svg>
